dist/assets/Logout.svg

<svg width="26" height="25" viewBox="0 0 26 25" fill="none" xmlns="http://www.w3.org/2000/svg">
<g id="Iconly/Bold/Logout">
<g id="Logout">
<path id="Vector" d="M11.6066 0.517792C14.6345 0.517792 17.1039 2.9449 17.1039 5.93304V11.7752H9.65837C9.12477 11.7752 8.70286 12.1898 8.70286 12.7143C8.70286 13.2265 9.12477 13.6534 9.65837 13.6534H17.1039V19.4834C17.1039 22.4715 14.6345 24.9108 11.5818 24.9108H5.53851C2.49825 24.9108 0.0288086 22.4837 0.0288086 19.4955V5.94523C0.0288086 2.9449 2.51065 0.517792 5.55092 0.517792H11.6066ZM20.2021 8.50674C20.568 8.12865 21.1656 8.12865 21.5315 8.49455L25.0929 12.0437C25.2758 12.2267 25.3734 12.4584 25.3734 12.7145C25.3734 12.9585 25.2758 13.2024 25.0929 13.3731L21.5315 16.9223C21.3485 17.1053 21.1046 17.2028 20.8729 17.2028C20.6289 17.2028 20.385 17.1053 20.2021 16.9223C19.8362 16.5564 19.8362 15.9588 20.2021 15.5929L22.1535 13.6537H17.1042V11.7754H22.1535L20.2021 9.83616C19.8362 9.47027 19.8362 8.87264 20.2021 8.50674Z" fill="white"/>
</g>
</g>
</svg>

<svg width="26" height="25" fill="none" xmlns="http://www.w3.org/2000/svg"><path d="M11.607.518c3.027 0 5.497 2.427 5.497 5.415v5.842H9.658a.94.94 0 0 0-.955.94c0 .511.422.938.955.938h7.446v5.83c0 2.988-2.47 5.428-5.522 5.428H5.539c-3.04 0-5.51-2.427-5.51-5.416V5.945c0-3 2.482-5.427 5.522-5.427h6.056Zm8.595 7.989a.931.931 0 0 1 1.33-.012l3.56 3.549a.932.932 0 0 1 0 1.33l-3.56 3.548a.946.946 0 0 1-.66.28.952.952 0 0 1-.67-.28.942.942 0 0 1 0-1.33l1.951-1.938h-5.049v-1.879h5.05l-1.952-1.939a.942.942 0 0 1 0-1.33Z" fill="#fff"/></svg>1 8.50674C20.568 8.12865 21.1656 8.12865 21.5315 8.49455L25.0929 12.0437C25.2758 12.2267 25.3734 12.4584 25.3734 12.7145C25.3734 12.9585 25.2758 13.2024 25.0929 13.3731L21.5315 16.9223C21.3485 17.1053 21.1046 17.2028 20.8729 17.2028C20.6289 17.2028 20.385 17.1053 20.2021 16.9223C19.8362 16.5564 19.8362 15.9588 20.2021 15.5929L22.1535 13.6537H17.1042V11.7754H22.1535L20.2021 9.83616C19.8362 9.47027 19.8362 8.87264 20.2021 8.50674Z" fill="white"/>
</g>
</g>
</svg>
